src/lib/packages/icons/src/assets/filled/home-shield.svg

<svg width="24" height="24" viewBox="0 0 24 24" fill="none" xmlns="http://www.w3.org/2000/svg">
<path fill-rule="evenodd" clip-rule="evenodd" d="M19.5699 8.58608L13.606 3.58498C12.677 2.80598 11.3219 2.80598 10.3929 3.58498L4.42896 8.58608C3.52296 9.34608 2.99902 9.65302 2.99902 11.651V18C2.99902 20 3.99902 21 5.99902 21H17.999C19.999 21 20.999 20 20.999 18V11.651C21 9.65202 20.4769 9.34608 19.5699 8.58608ZM15.5 13.0561C15.5 15.7231 13.312 17.056 12 17.5C10.688 17.056 8.5 15.7221 8.5 13.0561C8.5 12.5811 8.5 11.289 8.5 10.834C10.25 10.332 11.125 9.945 12.007 9.501C12.875 9.945 13.75 10.332 15.5 10.776C15.5 11.253 15.5 12.5651 15.5 13.0561Z" fill="currentColor"/>
</svg>

<svg xmlns="http://www.w3.org/2000/svg" width="24" height="24" fill="none"><path fill="currentColor" fill-rule="evenodd" d="m19.57 8.586-5.964-5.001a2.5 2.5 0 0 0-3.213 0L4.429 8.586c-.906.76-1.43 1.067-1.43 3.065V18c0 2 1 3 3 3h12c2 0 3-1 3-3v-6.349c.001-1.999-.522-2.305-1.43-3.065Zm-4.07 4.47c0 2.667-2.188 4-3.5 4.444-1.312-.444-3.5-1.778-3.5-4.444v-2.222c1.75-.502 2.625-.889 3.507-1.333.868.444 1.743.831 3.493 1.275v2.28Z" clip-rule="evenodd"/></svg>
